img/services/page/advantages/4.svg

<svg width="69" height="81" viewBox="0 0 69 81" fill="none" xmlns="http://www.w3.org/2000/svg">
<rect x="1.5" y="57.2114" width="11.6" height="22.7887" stroke="url(#paint0_linear_858_6608)" stroke-width="2"/>
<rect x="17.3662" y="47.0703" width="11.6" height="32.9296" stroke="url(#paint1_linear_858_6608)" stroke-width="2"/>
<rect x="36.6338" y="38.0562" width="11.6" height="41.9437" stroke="url(#paint2_linear_858_6608)" stroke-width="2"/>
<rect x="55.9004" y="23.4082" width="11.6" height="56.5915" stroke="url(#paint3_linear_858_6608)" stroke-width="2"/>
<path d="M60 11.7042C48.1 30.2958 15.2333 41.8024 0.5 42.6901C19.2 41.5634 50.9333 22.6922 55.4667 8.88732L50.3667 7.76056L62.8333 1V14.5211L60 11.7042Z" stroke="url(#paint4_linear_858_6608)" stroke-linecap="round"/>
<path d="M10.4 6.48L10.2 5.52L11.18 4.52L11.38 5.48L10.4 6.48ZM10.2 22.78V20.86H11.38V22.78H10.2ZM10.72 21.12C10.4 21.12 10.0333 21.1067 9.62 21.08C9.22 21.0667 8.80667 21.04 8.38 21C7.96667 20.96 7.56667 20.92 7.18 20.88C6.80667 20.84 6.48667 20.7867 6.22 20.72V19.16C6.56667 19.1867 6.98 19.2133 7.46 19.24C7.95333 19.2667 8.47333 19.2867 9.02 19.3C9.58 19.3133 10.12 19.32 10.64 19.32C11.2133 19.32 11.72 19.2667 12.16 19.16C12.6133 19.0533 12.9667 18.8533 13.22 18.56C13.4867 18.2667 13.62 17.8533 13.62 17.32V16.46C13.62 15.86 13.4533 15.4 13.12 15.08C12.8 14.76 12.3067 14.6 11.64 14.6H10.14C8.86 14.6 7.86667 14.32 7.16 13.76C6.46667 13.2 6.12 12.24 6.12 10.88V10.08C6.12 8.66667 6.5 7.66 7.26 7.06C8.03333 6.44667 9.12667 6.14 10.54 6.14C11.0067 6.14 11.5067 6.16667 12.04 6.22C12.5733 6.26 13.0933 6.31333 13.6 6.38C14.1067 6.44667 14.5267 6.51333 14.86 6.58V8.14C14.26 8.1 13.5867 8.06 12.84 8.02C12.1067 7.96667 11.4133 7.94 10.76 7.94C10.2 7.94 9.71333 8.00667 9.3 8.14C8.9 8.26 8.58667 8.48 8.36 8.8C8.14667 9.12 8.04 9.57333 8.04 10.16V10.76C8.04 11.48 8.23333 11.98 8.62 12.26C9.00667 12.54 9.54667 12.68 10.24 12.68H11.86C12.7 12.68 13.3867 12.8333 13.92 13.14C14.4667 13.4467 14.8733 13.8667 15.14 14.4C15.4067 14.9333 15.54 15.54 15.54 16.22V17.26C15.54 18.3 15.3267 19.1 14.9 19.66C14.4733 20.22 13.9 20.6067 13.18 20.82C12.46 21.02 11.64 21.12 10.72 21.12Z" fill="url(#paint5_linear_858_6608)"/>
<path d="M21.5333 13.9579C21.5333 19.5908 16.9395 24.1621 11.2667 24.1621C5.5938 24.1621 1 19.5908 1 13.9579C1 8.32499 5.5938 3.75366 11.2667 3.75366C16.9395 3.75366 21.5333 8.32499 21.5333 13.9579Z" stroke="url(#paint6_linear_858_6608)"/>
<defs>
<linearGradient id="paint0_linear_858_6608" x1="0.5" y1="68.6058" x2="14.1" y2="68.6058" gradientUnits="userSpaceOnUse">
<stop stop-color="#E3255E"/>
<stop offset="0.445" stop-color="#FF2323"/>
<stop offset="1" stop-color="#E2CC00"/>
</linearGradient>
<linearGradient id="paint1_linear_858_6608" x1="16.3662" y1="63.5351" x2="29.9662" y2="63.5351" gradientUnits="userSpaceOnUse">
<stop stop-color="#E3255E"/>
<stop offset="0.445" stop-color="#FF2323"/>
<stop offset="1" stop-color="#E2CC00"/>
</linearGradient>
<linearGradient id="paint2_linear_858_6608" x1="35.6338" y1="59.028" x2="49.2338" y2="59.028" gradientUnits="userSpaceOnUse">
<stop stop-color="#E3255E"/>
<stop offset="0.445" stop-color="#FF2323"/>
<stop offset="1" stop-color="#E2CC00"/>
</linearGradient>
<linearGradient id="paint3_linear_858_6608" x1="54.9004" y1="51.704" x2="68.5004" y2="51.704" gradientUnits="userSpaceOnUse">
<stop stop-color="#E3255E"/>
<stop offset="0.445" stop-color="#FF2323"/>
<stop offset="1" stop-color="#E2CC00"/>
</linearGradient>
<linearGradient id="paint4_linear_858_6608" x1="0.5" y1="21.8451" x2="62.8333" y2="21.8451" gradientUnits="userSpaceOnUse">
<stop stop-color="#E3255E"/>
<stop offset="0.445" stop-color="#FF2323"/>
<stop offset="1" stop-color="#E2CC00"/>
</linearGradient>
<linearGradient id="paint5_linear_858_6608" x1="5" y1="10" x2="17" y2="10" gradientUnits="userSpaceOnUse">
<stop stop-color="#E3255E"/>
<stop offset="0.445" stop-color="#FF2323"/>
<stop offset="1" stop-color="#E2CC00"/>
</linearGradient>
<linearGradient id="paint6_linear_858_6608" x1="0.5" y1="13.9579" x2="22.0333" y2="13.9579" gradientUnits="userSpaceOnUse">
<stop stop-color="#E3255E"/>
<stop offset="0.445" stop-color="#FF2323"/>
<stop offset="1" stop-color="#E2CC00"/>
</linearGradient>
</defs>
</svg>

<svg width="69" height="81" fill="none" xmlns="http://www.w3.org/2000/svg"><path stroke="url(#a)" stroke-width="2" d="M1.5 57.211h11.6V80H1.5z"/><path stroke="url(#b)" stroke-width="2" d="M17.366 47.07h11.6V80h-11.6z"/><path stroke="url(#c)" stroke-width="2" d="M36.634 38.056h11.6V80h-11.6z"/><path stroke="url(#d)" stroke-width="2" d="M55.9 23.408h11.6V80H55.9z"/><path d="M60 11.704C48.1 30.296 15.233 41.802.5 42.69c18.7-1.127 50.433-19.998 54.967-33.803l-5.1-1.126L62.833 1v13.521L60 11.704Z" stroke="url(#e)" stroke-linecap="round"/><path d="m10.4 6.48-.2-.96.98-1 .2.96-.98 1Zm-.2 16.3v-1.92h1.18v1.92H10.2Zm.52-1.66c-.32 0-.687-.013-1.1-.04-.4-.013-.813-.04-1.24-.08-.413-.04-.813-.08-1.2-.12a7.162 7.162 0 0 1-.96-.16v-1.56a52.585 52.585 0 0 0 2.8.14c.56.013 1.1.02 1.62.02a6.47 6.47 0 0 0 1.52-.16c.453-.107.807-.307 1.06-.6.267-.293.4-.707.4-1.24v-.86c0-.6-.167-1.06-.5-1.38-.32-.32-.813-.48-1.48-.48h-1.5c-1.28 0-2.273-.28-2.98-.84-.693-.56-1.04-1.52-1.04-2.88v-.8c0-1.413.38-2.42 1.14-3.02.773-.613 1.867-.92 3.28-.92.467 0 .967.027 1.5.08.533.04 1.053.093 1.56.16.507.067.927.133 1.26.2v1.56c-.6-.04-1.273-.08-2.02-.12a28.745 28.745 0 0 0-2.08-.08c-.56 0-1.047.067-1.46.2-.4.12-.713.34-.94.66-.213.32-.32.773-.32 1.36v.6c0 .72.193 1.22.58 1.5.387.28.927.42 1.62.42h1.62c.84 0 1.527.153 2.06.46.547.307.953.727 1.22 1.26s.4 1.14.4 1.82v1.04c0 1.04-.213 1.84-.64 2.4-.427.56-1 .947-1.72 1.16-.72.2-1.54.3-2.46.3Z" fill="url(#f)"/><path d="M21.533 13.958c0 5.633-4.594 10.204-10.266 10.204C5.594 24.162 1 19.591 1 13.958 1 8.325 5.594 3.754 11.267 3.754c5.672 0 10.266 4.571 10.266 10.204Z" stroke="url(#g)"/><defs><linearGradient id="a" x1=".5" y1="68.606" x2="14.1" y2="68.606" gradientUnits="userSpaceOnUse"><stop stop-color="#E3255E"/><stop offset=".445" stop-color="#FF2323"/><stop offset="1" stop-color="#E2CC00"/></linearGradient><linearGradient id="b" x1="16.366" y1="63.535" x2="29.966" y2="63.535" gradientUnits="userSpaceOnUse"><stop stop-color="#E3255E"/><stop offset=".445" stop-color="#FF2323"/><stop offset="1" stop-color="#E2CC00"/></linearGradient><linearGradient id="c" x1="35.634" y1="59.028" x2="49.234" y2="59.028" gradientUnits="userSpaceOnUse"><stop stop-color="#E3255E"/><stop offset=".445" stop-color="#FF2323"/><stop offset="1" stop-color="#E2CC00"/></linearGradient><linearGradient id="d" x1="54.9" y1="51.704" x2="68.5" y2="51.704" gradientUnits="userSpaceOnUse"><stop stop-color="#E3255E"/><stop offset=".445" stop-color="#FF2323"/><stop offset="1" stop-color="#E2CC00"/></linearGradient><linearGradient id="e" x1=".5" y1="21.845" x2="62.833" y2="21.845" gradientUnits="userSpaceOnUse"><stop stop-color="#E3255E"/><stop offset=".445" stop-color="#FF2323"/><stop offset="1" stop-color="#E2CC00"/></linearGradient><linearGradient id="f" x1="5" y1="10" x2="17" y2="10" gradientUnits="userSpaceOnUse"><stop stop-color="#E3255E"/><stop offset=".445" stop-color="#FF2323"/><stop offset="1" stop-color="#E2CC00"/></linearGradient><linearGradient id="g" x1=".5" y1="13.958" x2="22.033" y2="13.958" gradientUnits="userSpaceOnUse"><stop stop-color="#E3255E"/><stop offset=".445" stop-color="#FF2323"/><stop offset="1" stop-color="#E2CC00"/></linearGradient></defs></svg>
